X:1
T:Hor che piu non mi sfaccio
T:Domenico Obizzi
T:Arietta
T:Source : Madrigali et arie a voce sola---Libro I ---Venetia---A.Vincenti---1627. Editor : André Vierendeels (03/03/16).
T:Notes : Original clefs : C1, F4 Editorial accidentals above the staff Notation in original print : "Alfabeto d'ariette per la Chitarra alla Spagnola", realised by the editor. 
T:Hor che piu non mi sfaccio
T:©
T:©
T:©
C:Domenico Obizzi
Z:©
%%score 1 { ( 2 3 ) | 4 }
L:1/8
Q:1/4=104
M:4/4
K:F
V:1 treble nm="Soprano" snm="S"
V:2 treble nm="BC" snm="BC"
V:3 treble 
V:4 bass 
V:1
 c2 A2 d2 cd | B3 c/B/- A2 cB | A2 GG G3 G | F2 E F/E/ D3 F/E/- | C4 G4 | GABc A4 | G2 dc B2 AB | %7
w: Hor che piu non mi|sfac- ci- o\_per * un can-|di- do sen, per un|bel vol- to,\_hor * * * che'l|* mio|no- do'è sciol- to, e|la fiam- ma d'A- mor con-|
w: Hor c'han- no fi- ne'i|pian- * ti,\_ne * piu'il cor|tor- men- ta- to'e da|mar- ti- ri,\_hor * * * che|* de|miei so- spi- ri, A-|mor ne- mi- co mio piu|
w: In van per me fog-|gio- * ma,\_nel * con- fin|d'u- na fron- te'un bion-|do cri- ne,\_in * * * van|* per|me s'a- do- na, u-|na guan- cia di fio- ri'un|
w: Al- tr'in per- pe- tua|guer- * ra,\_me- * n'i suoi|gior- n'in ser- vi- tu|'A- mo- re,\_che * * * di|* là|dov' ei ser- ra, in|pri- gio- ne'in- fer- nal fug-|
 G3 A B2 c/d/_e/d/ | c4 B4 | z2 DE F2 GG | A2 Ac BAGF | G2 c2 BA GF | G4 F2 FG | A2 =BB c2 cd | %14
w: ver- sa'in\_giac- cio, con * * *|ra- gion|dir mi li- ce, la|ca- ra li- ber- tà go- do\_fe-|li- ce, con * ra- *|gion dir mi li-|ce, la ca- ra li- ber-|
w: non ti\_van- ti, lit- * * *|to ben|dir io deg- gio, *|||||
w: sen di\_bri- ne, ch'io * * *|non vuo|ch'al- tra vol- ta, *|||||
w: gi- to'è'il\_co- re, e * * *|con- ten-|to mi pia- ce, *|||||
 cBAG A2 d2 | cB AG A4 | G2 c2 BA GF | G4 !fermata!F4 |] %18
w: tà go- do\_fe- li- ce, go-|do\_fe- * li- * ce.|||
w: ||||
w: ||||
w: ||||
V:2
 c4 B2 A2 | G2 B2 A4 | c2 G2 G4 | B2 G2 A2 =B2 | c4 G4 | c2 B2 A4 | B6 A2 | G2 F2 B2 G2 | A4 F4 | %9
 B2 G2 F2 G2 | F4 B4 | c4 d4 | c4 A4 | F2 G2 G4 | G2 B2 A2 G2 | G2 c2 A4 | B2 A2 F2 A2 | c4 A4 |] %18
V:3
 A4 F2 C2 | D4 C4 | F2 D2 E4 | D2 C2 C2 D2 | E4 E4 | E2 D2 F4 | D6 F2 | B,2 C2 D2 _E2 | C4 D4 | %9
 F2 E2 D2 C2- | C4 F4 | E4 F2 G2 | F2 E2 C4 | D2 E2 E3 D | _E4 F2 D2 | _E2 C2 F4 | D2 F2 D2 F2- | %17
 F2 E2 F4 |] %18
V:4
 F,4 B,2 A,2 | G,4 F,2 F,G, | A,2 =B,2 C2 C,2 | D,2 E,2 F,2 G,2 | C,4 C,4 | C,2 G,,2 D,4 | %6
 G,,4 G,2 D,2 | _E,2 F,2 G,2 E,2 | F,4 B,,4 | B,,3 C, D,2 E,2 | F,3 E, D,3 D, | C,2 A,,2 B,,2 D,2 | %12
 C,4 F,,4 | F,2 E,D, C,3 =B,, | C,2 _E,2 D,2 B,,2 | C,2 _E,2 D,4 | G,,2 A,,2 B,,2 D,2 | %17
 C,4 !fermata!F,,4 |] %18

